packages/calcite-ui-icons/icons/trace-path-complete-16.svg

<?xml version="1.0" encoding="UTF-8"?><svg id="icons" xmlns="http://www.w3.org/2000/svg" viewBox="0 0 16 16"><defs><style>.cls-1{fill:none;}</style></defs><rect class="cls-1" width="16" height="16"/><path d="M15,13h-.02539V1.02539h-6.97461v13H1.97461V3h.02539c.55231,0,1-.44775,1-1v-1c0-.55231-.44769-1-1-1h-1C.44769,0,0,.44769,0,1v1c0,.55225.44769,1,1,1h.02539v11.97461h7.97461V1.97461h5.02539v11.02539h-.02539c-.55231,0-1,.44769-1,1v1c0,.55225.44769,1,1,1h1c.55231,0,1-.44775,1-1v-1c0-.55231-.44769-1-1-1ZM1,2v-1h1v1h-1ZM15,15h-1v-1h1v1Z"/></svg>

<svg xmlns="http://www.w3.org/2000/svg" viewBox="0 0 16 16"><path fill="none" d="M0 0h16v16H0z"/><path d="M15 13h-.025V1.025H8v13H1.975V3H2a1 1 0 0 0 1-1V1a1 1 0 0 0-1-1H1a1 1 0 0 0-1 1v1a1 1 0 0 0 1 1h.025v11.975H9v-13h5.025V13H14a1 1 0 0 0-1 1v1a1 1 0 0 0 1 1h1a1 1 0 0 0 1-1v-1a1 1 0 0 0-1-1zM1 2V1h1v1H1zm14 13h-1v-1h1v1z"/></svg>
